X:235
T:Excuse Me
M:6/8
L:1/8
S:Colin Hume's website,  colinhume.com  - chords can also be printed below the stave.
Q:3/8=110
%%stretchstaff 0
C:John Playford, 1686
N:For the dance "The Belle of Northampton" by Gary Roodman
K:Gm
P:A
|: "Gm"G2G G2g | "Bb"f2e d2e | "F"f>gf "C/E"cdB | "F"A3 F3 |\
"Bb"f>gf "C"=e>fe | "Gm"d>ed "F"c>BA | "Gm"B>AG "D7"A^F2 | "Gm"G6 :|
P:B
|: "Gm"B2c dBG | "/"B2c dBG | "Gm"B2c d2g | "D7"^f3 d3 :|
P:C
|: "F"ABc c>dc | "/"f2c A2A | "Gm"Bcd d>ed | "G/B"g2f "C"=e>dc |\
"F"f2f "Bb"f>ed | "C7"c2B "F"ABc | "Gm"B>AG "D7"A^F2 | "Gm"G6 :|

